!!! OTL: Berkowitz52
!!! Chapter: 1
!!! Section: I
!!! Page: 15
!!! Mode: 
!!! Encoder: DJB
**kern
*staff1
*I"Piano
=1-
*clefC3
*k[f#c#g#d#]
*E:
*M3/4
4e\
4A/
4g#\
=2
4.e\
8f#\
4g#\
=3
4a\
8b\L
8a\J
8g#\L
8f#\J
=4
2g#\
4g#\
=5
4a\
8b\L
8cc#\J
8a\L
8f#\J
=6
4g#\
4b\
4B/
=7
2g#\
4f#\
=8
2.e\
==
*-
